!!!COM: Bach, Johann Sebastian
!!!OPR: Joh. Seb. Bachs vierstimmige Choralgesänge
!!!XEN: Four-part Chorales
!!!OTL: 55. Es spricht der Unweisen Mund wohl
!!!SCT: BWV 308
!!!SCA: Thematisch-systematisches Verzeichnis der musikalischen Werke Johann Sebastian Bach: Bach-Werke-Verzeichnis (Schmieder)
!!!YOR: Bach Gesellschaft Edition xxxix
!!!ENC: Steven Rasmussen
!!!CDT: 1685/3//-1750/7/28/
!!!OCY: Deutschland
!!!YEC: Copyright (c) 1994, 2000 Center for Computer Assisted Research in the Humanities
!!!YEM: Rights to all derivative editions reserved
!!!YEN: United States of America
**kern	**silbe	**kern	**silbe	**kern	**kern	**silbe
*I:[BASSO]	*I:[BASSO]	*I:[TENORE]	*I:[TENORE]	*I:[ALTO]	*I:[SOPRANO]	*I:[SOPRANO]
*>[A,A,B]	*	*>[A,A,B]	*	*>[A,A,B]	*>[A,A,B,A,A,B,C]	*
*>A	*	*>A	*	*>A	*>A	*
*clefF4	*	*clefGv2	*	*clefG2	*clefG2	*
*k[b-e-]	*	*k[b-e-]	*	*k[b-e-]	*k[b-e-]	*
*B-:	*	*B-:	*	*B-:	*B-:	*
*M4/4	*	*M4/4	*	*M4/4	*M4/4	*
4BB-	.	4d	.	4f	4b-	Esdoch
=1	=1	=1	=1	=1	=1	=1
4BB-	.	4d	.	4f	4b-	sprichtist
4C	.	4c	.	4e-	8aL	derihr
.	.	.	.	.	8gJ	.
4D	.	8cL	.	4d	4f	Un-Herz
.	.	8B-J	.	.	.	.
4G	.	4B-	.	4d	4b-	-wei-Un-
=2	=2	=2	=2	=2	=2	=2
4F	.	8B-L	.	4e-	4cc	-sen-glau-
.	.	8AJ	.	.	.	.
4BB-	.	8B-L	.	4f	4dd	Mund-bens
.	.	8A-J	.	.	.	.
4E-;	.	4G;	.	4e-;	4b-;	wohl:voll,
*	*	*	*	*	*>B	*
4E-	.	4An	.	4c	4f	Denmit
=3	=3	=3	=3	=3	=3	=3
4D	.	4B-	.	4f	4b-	rech-Tat
4AA	.	4e-	.	4f	4cc	-tensie
4BB-	.	8dL	.	4f	4dd	Gottihn
.	.	8cJ	.	.	.	.
4E-	.	4B-	.	4g	4ee-	wirver-
=4	=4	=4	=4	=4	=4	=4
2F	.	8B-L	.	2f	8ccL	mei--nei-
.	.	16AL	.	.	8b-J	.
.	.	16GJJ	.	.	.	.
.	.	4A	.	.	4cc	.
4BB-;	.	4d;	.	4f;	4b-;	-nen;-nen.
=:|!	=:|!	=:|!	=:|!	=:|!	=:|!	=:|!
*>B	*	*>B	*	*>B	*>C	*
4BB-	.	4d	.	4f	4b-	Ihr
=5	=5	=5	=5	=5	=5	=5
4BB-	.	4c	.	4en	4g	We-
4AA	.	4c	.	4f	4a	-sen
4GG	.	4d	.	4f	8b-L	ist
.	.	.	.	.	8aJ	.
8CL	.	8GL	.	8eL	4g	ver-
8BB-J	.	16AL	.	8dJ	.	.
.	.	16B-JJ	.	.	.	.
=6	=6	=6	=6	=6	=6	=6
8AAL	.	8cL	.	4c	4f	-der-
8BB-J	.	16B-L	.	.	.	.
.	.	16AJJ	.	.	.	.
4C	.	8GL	.	4c	4en	-bet
.	.	16AL	.	.	.	.
.	.	16B-JJ	.	.	.	.
4FF;	.	4A;	.	4c;	4f;	zwar,
8FL	.	4A	.	4c	4f	fÃ¼r
8E-J	.	.	.	.	.	.
=7	=7	=7	=7	=7	=7	=7
8DL	.	4B-	.	8fL	4b-	Gott
8E-J	.	.	.	8gJ	.	.
8DL	.	4e-	.	4a	4cc	ist
8CJ	.	.	.	.	.	.
(8BB-	.	4f	.	4b-	4dd	es
4B-)	.	.	.	.	.	.
.	.	8gL	.	4cc	4ee-	ein
8A	.	8fJ	.	.	.	.
=8	=8	=8	=8	=8	=8	=8
4B-	.	4f	.	(8cc	4dd	Greu-
.	.	.	.	4b-)	.	.
4F	.	4f	.	.	4cc	-el
.	.	.	.	8a	.	.
4BB-;	.	4f;	.	4b-;	4dd;	gar,
4A	.	8fL	.	4f	4cc	es
.	.	8e-J	.	.	.	.
=9	=9	=9	=9	=9	=9	=9
8B-L	.	8dL	.	4f	4dd	tut
8AJ	.	8cJ	.	.	.	.
4G	.	4B-	.	4g	4ee-	Ihr'
4F	Kei-	[4c	Kei-	4a	8ffL	Kei-
.	.	.	.	.	8ee-J	.
4B-	-ner	8cL]	.	4f	4dd	-ner
.	.	[8B-J	.	.	.	.
=10	=10	=10	=10	=10	=10	=10
2F	kein	8B-]	.	2f	8ccL	kein
.	.	16ALL	-ner	.	8b-J	.
.	.	16GJJ	.	.	.	.
.	.	4A	kein	.	4cc	.
4BB-;	Gut.	4d;	Gut.	4f;	4b-;	Gut.
==|!	==|!	==|!	==|!	==|!	==|!	==|!
*-	*-	*-	*-	*-	*-	*-
!!!RWG: Key is interpreted using the Humdrum key tool.
!!!URL-pdf: https://s9.imslp.org/files/imglnks/usimg/6/6b/IMSLP24489-PMLP09471-CCARH_Bach_Chorales.pdf#page=38 Musedata edition
!!!URL-pdf: https://s9.imslp.org/files/imglnks/usimg/7/7a/IMSLP04155-Bach_-_BGA_253-438.pdf#page=30 	Bach-Gesellschaft Ausgabe, Band 39 (pp.175-276) Leipzig: Breitkopf und Härtel, 1892. Plate B.W. XXXIX.
!!!END: 1994/05/25
!!!EMD: Converted from MuseData to Humdrum Dec 19, 2000, by Andreas Kornstaedt using muse2kern.
!!!EED: Craig Stuart Sapp
!!!EEV: 2024/03/31
!!!ONB: Some non-unicode characters
!!!filter-keyboard: satb2gs
